!! 00000] TT[WS
!!!OTL: Huode buhe ren yiyang
!!!ARE: Asia, China,ÿShanxi Hequ
!! Ethnic Group: Han
!! WI, 38 (1)
!!!SCT: J0040
!!!YEM: Copyright 1995, estate of Helmut Schaffrath.
**kern
*ICvox
*Ivox
*M2/4
*k[f#c#]
*D:
{8a
8b
4e
=1
8a
8b
8ee
8aa
=2
8dd
8b
8a
8dd
=3
2b}
=4
{8a
8b
4e
=5
8a
8b
8ee
8aa
=6
8dd
8b
8a
8b
=7
2a}
==
!!!AGN: Shange, Shanqu. Aisu
!!!ONB: ESAC (Essen Associative Code) Database: CHINA
!!!AMT: simple duple
!!!AIN: vox
!!!EED: Helmut Schaffrath
!!!EEV: 1.0
*-
